; generated by PrusaSlicer 2.2.0-rc2+linux-x64 on 2020-03-23 at 05:30:41 UTC

; 

; external perimeters extrusion width = 0.45mm
; perimeters extrusion width = 0.45mm
; infill extrusion width = 0.45mm
; solid infill extrusion width = 0.45mm
; top infill extrusion width = 0.40mm
; first layer extrusion width = 0.42mm

M73 P0 R425
M73 Q0 S425
M201 X1000 Y1000 Z1000 E5000 ; sets maximum accelerations, mm/sec^2
M203 X200 Y200 Z12 E120 ; sets maximum feedrates, mm/sec
M204 P1250 R1250 T1250 ; sets acceleration (P, T) and retract acceleration (R), mm/sec^2
M205 X8.00 Y8.00 Z0.40 E4.50 ; sets the jerk limits, mm/sec
M205 S0 T0 ; sets the minimum extruding and travel feed rate, mm/sec
M107
M862.3 P "MK3SMMU2S" ; printer model check
M862.1 P0.4 ; nozzle diameter check
M115 U3.8.1 ; tell printer latest fw version
G90 ; use absolute coordinates
M83 ; extruder relative mode
M104 S240 ; set extruder temp
M140 S50 ; set bed temp
Tx
M190 S50 ; wait for bed temp
M109 S240 ; wait for extruder temp
G28 W ; home all without mesh bed level
G80 ; mesh bed leveling

;go outside print area
G1 Y-3.0 F1000.0
G1 Z0.4 F1000.0
; select extruder
Tc
; purge line
G1 X55.0 F2000.0
G1 Z0.3 F1000.0
G92 E0.0
G1 X240.0 E25.0 F2200.0
M73 Q0 S425
M73 P0 R424
G1 Y-2.0 F1000.0
G1 X55.0 E25 F1400.0
G1 Z0.20 F1000.0
G1 X5.0 E4.0 F1000.0

M221 S95
G92 E0.0
G21 ; set units to millimeters
G90 ; use absolute coordinates
M83 ; use relative distances for extrusion
M900 K0
;BEFORE_LAYER_CHANGE
G92 E0.0
;0.2


G1 E-0.80000 F2100.00000
G1 Z0.200 F10800.000
;AFTER_LAYER_CHANGE
;0.2
G1 X46.544 Y52.481
G1 E0.80000 F1500.00000
M204 S1000
G1 F1074.044
G1 X47.754 Y51.483 E0.04920
G1 X49.673 Y50.344 E0.06996
G1 X51.183 Y49.739 E0.05100
G1 X52.759 Y49.340 E0.05099
G1 X54.973 Y49.133 E0.06972
G1 X194.994 Y49.113 E4.39025
G1 X197.311 Y49.332 E0.07296
G1 X198.743 Y49.697 E0.04635
G1 X199.548 Y49.983 E0.02677
G1 X200.887 Y50.609 E0.04635
G1 X201.623 Y51.040 E0.02676
G1 X203.464 Y52.468 E0.07304
G1 X205.004 Y54.216 E0.07304
G1 X206.188 Y56.218 E0.07293
G1 X206.525 Y57.004 E0.02679
G1 X206.978 Y58.410 E0.04633
G1 X207.342 Y60.706 E0.07291
G1 X207.344 Y149.242 E2.77597
G1 X207.160 Y150.739 E0.04730
G1 X206.960 Y151.636 E0.02881
G1 X206.496 Y153.051 E0.04670
G1 X205.837 Y154.451 E0.04850
G1 X205.007 Y155.760 E0.04861
G1 X204.061 Y156.910 E0.04670
G1 X203.411 Y157.560 E0.02880
G1 X202.246 Y158.517 E0.04729
G1 X200.327 Y159.656 E0.06996
G1 X198.817 Y160.261 E0.05100
G1 X197.241 Y160.660 E0.05099
G1 X195.027 Y160.867 E0.06972
G1 X54.968 Y160.887 E4.39145
G1 X53.453 Y160.789 E0.04760
G1 X51.934 Y160.499 E0.04849
G1 X50.459 Y160.020 E0.04861
G1 X49.106 Y159.388 E0.04683
G1 X47.796 Y158.566 E0.04849
G1 X47.067 Y158.001 E0.02893
G1 X45.981 Y156.976 E0.04681
G1 X44.982 Y155.766 E0.04920
G1 X43.842 Y153.844 E0.07008
G1 X43.239 Y152.337 E0.05088
G1 X42.840 Y150.760 E0.05100
G1 X42.633 Y148.569 E0.06900
G1 X42.634 Y61.445 E2.73171
G1 X42.731 Y59.953 E0.04688
G1 X43.021 Y58.434 E0.04849
G1 X43.500 Y56.959 E0.04861
G1 X44.132 Y55.606 E0.04683
G1 X44.954 Y54.296 E0.04849
G1 X45.519 Y53.567 E0.02893
G1 X46.503 Y52.525 E0.04493
G1 E-0.80000 F2100.00000
G1 X66.591 Y72.613 F10800.000
G1 E0.80000 F1500.00000
G1 F1074.044
G1 X67.446 Y71.845 E0.03604
G1 X68.230 Y71.238 E0.03110
G1 X69.050 Y70.680 E0.03110
G1 X69.904 Y70.175 E0.03110
G1 X70.788 Y69.725 E0.03110
G1 X71.698 Y69.331 E0.03109
G1 X72.631 Y68.995 E0.03110
G1 X73.584 Y68.718 E0.03110
G1 X74.552 Y68.502 E0.03110
G1 X75.531 Y68.347 E0.03110
G1 X76.518 Y68.254 E0.03110
G1 X77.497 Y68.223 E0.03071
G1 X89.522 Y68.223 E0.37703
G1 X90.501 Y68.254 E0.03071
G1 X91.488 Y68.347 E0.03110
G1 X92.468 Y68.502 E0.03110
G1 X93.436 Y68.718 E0.03110
G1 X94.388 Y68.995 E0.03110
G1 X95.322 Y69.331 E0.03110
G1 X96.232 Y69.725 E0.03109
G1 X97.115 Y70.175 E0.03110
G1 X97.969 Y70.680 E0.03110
G1 X98.789 Y71.238 E0.03110
G1 X99.573 Y71.845 E0.03110
G1 X100.317 Y72.501 E0.03110
G1 X101.018 Y73.203 E0.03109
G1 X101.674 Y73.947 E0.03110
G1 X102.282 Y74.730 E0.03110
G1 X102.840 Y75.551 E0.03110
G1 X103.344 Y76.404 E0.03110
G1 X103.795 Y77.288 E0.03110
G1 X104.189 Y78.198 E0.03109
G1 X104.525 Y79.131 E0.03110
G1 X104.801 Y80.084 E0.03110
G1 X105.018 Y81.052 E0.03109
G1 X105.173 Y82.031 E0.03110
G1 X105.266 Y83.019 E0.03110
G1 X105.297 Y83.998 E0.03071
G1 X105.297 Y126.022 E1.31766
G1 X105.266 Y127.001 E0.03071
G1 X105.173 Y127.989 E0.03110
G1 X105.018 Y128.968 E0.03110
G1 X104.801 Y129.936 E0.03109
G1 X104.525 Y130.889 E0.03110
G1 X104.189 Y131.822 E0.03110
G1 X103.795 Y132.732 E0.03109
G1 X103.344 Y133.616 E0.03110
G1 X102.840 Y134.469 E0.03110
G1 X102.282 Y135.290 E0.03110
G1 X101.674 Y136.073 E0.03110
G1 X101.018 Y136.817 E0.03110
G1 X100.317 Y137.518 E0.03109
G1 X99.573 Y138.174 E0.03110
G1 X98.789 Y138.782 E0.03110
G1 X97.969 Y139.340 E0.03110
G1 X97.115 Y139.845 E0.03110
G1 X96.232 Y140.295 E0.03110
G1 X95.322 Y140.689 E0.03109
G1 X94.388 Y141.025 E0.03110
G1 X93.436 Y141.301 E0.03110
G1 X92.468 Y141.518 E0.03110
G1 X91.488 Y141.673 E0.03110
G1 X90.501 Y141.766 E0.03110
G1 X89.522 Y141.797 E0.03071
G1 X77.497 Y141.797 E0.37703
G1 X76.518 Y141.766 E0.03071
G1 X75.531 Y141.673 E0.03110
G1 X74.552 Y141.518 E0.03110
G1 X73.584 Y141.301 E0.03110
G1 X72.631 Y141.025 E0.03110
G1 X71.698 Y140.689 E0.03110
G1 X70.788 Y140.295 E0.03109
G1 X69.904 Y139.845 E0.03110
G1 X69.050 Y139.340 E0.03110
G1 X68.230 Y138.782 E0.03110
G1 X67.446 Y138.174 E0.03110
G1 X66.703 Y137.518 E0.03110
G1 X66.001 Y136.817 E0.03109
G1 X65.345 Y136.073 E0.03110
G1 X64.737 Y135.290 E0.03110
G1 X64.180 Y134.469 E0.03110
G1 X63.675 Y133.616 E0.03110
G1 X63.225 Y132.732 E0.03110
G1 X62.831 Y131.822 E0.03109
G1 X62.495 Y130.889 E0.03110
G1 X62.218 Y129.936 E0.03110
G1 X62.002 Y128.968 E0.03109
G1 X61.847 Y127.989 E0.03110
G1 X61.753 Y127.001 E0.03110
G1 X61.723 Y126.022 E0.03071
G1 X61.723 Y83.998 E1.31766
G1 X61.753 Y83.019 E0.03071
G1 X61.847 Y82.031 E0.03110
G1 X62.002 Y81.052 E0.03110
G1 X62.218 Y80.084 E0.03109
G1 X62.495 Y79.131 E0.03110
G1 X62.831 Y78.198 E0.03110
G1 X63.225 Y77.288 E0.03109
G1 X63.675 Y76.404 E0.03110
G1 X64.180 Y75.551 E0.03110
G1 X64.737 Y74.730 E0.03110
G1 X65.345 Y73.947 E0.03110
G1 X66.001 Y73.203 E0.03110
G1 X66.548 Y72.656 E0.02426
G1 X66.815 Y72.922 F10800.000
G1 F1074.044
G1 X67.687 Y72.136 E0.03680
G1 X68.452 Y71.543 E0.03036
G1 X69.253 Y70.999 E0.03035
G1 X70.086 Y70.506 E0.03035
G1 X70.948 Y70.066 E0.03035
G1 X71.837 Y69.682 E0.03035
G1 X72.748 Y69.354 E0.03036
G1 X73.677 Y69.084 E0.03035
G1 X74.622 Y68.873 E0.03035
G1 X75.578 Y68.721 E0.03035
G1 X76.542 Y68.630 E0.03035
G1 X77.503 Y68.600 E0.03015
G1 X89.516 Y68.600 E0.37666
G1 X90.477 Y68.630 E0.03015
G1 X91.441 Y68.721 E0.03035
G1 X92.397 Y68.873 E0.03035
G1 X93.342 Y69.084 E0.03035
G1 X94.272 Y69.354 E0.03035
G1 X95.183 Y69.682 E0.03036
G1 X96.071 Y70.066 E0.03035
G1 X96.934 Y70.506 E0.03035
G1 X97.767 Y70.999 E0.03035
G1 X98.568 Y71.543 E0.03035
G1 X99.333 Y72.136 E0.03036
G1 X100.059 Y72.776 E0.03035
G1 X100.743 Y73.461 E0.03035
G1 X101.384 Y74.187 E0.03035
G1 X101.977 Y74.952 E0.03036
G1 X102.521 Y75.753 E0.03035
G1 X103.014 Y76.586 E0.03035
G1 X103.453 Y77.449 E0.03035
G1 X103.838 Y78.337 E0.03035
G1 X104.166 Y79.248 E0.03036
G1 X104.436 Y80.178 E0.03036
G1 X104.647 Y81.122 E0.03035
G1 X104.798 Y82.079 E0.03035
G1 X104.890 Y83.042 E0.03035
G1 X104.920 Y84.003 E0.03015
G1 X104.920 Y126.016 E1.31728
G1 X104.890 Y126.978 E0.03015
G1 X104.798 Y127.941 E0.03035
G1 X104.647 Y128.898 E0.03035
G1 X104.436 Y129.842 E0.03035
G1 X104.166 Y130.772 E0.03036
G1 X103.838 Y131.683 E0.03036
G1 X103.453 Y132.571 E0.03035
G1 X103.014 Y133.434 E0.03035
G1 X102.521 Y134.267 E0.03035
G1 X101.977 Y135.068 E0.03035
G1 X101.384 Y135.833 E0.03036
G1 X100.743 Y136.559 E0.03035
G1 X100.059 Y137.243 E0.03035
G1 X99.333 Y137.884 E0.03035
G1 X98.568 Y138.477 E0.03036
G1 X97.767 Y139.021 E0.03035
G1 X96.934 Y139.514 E0.03035
G1 X96.071 Y139.953 E0.03035
G1 X95.183 Y140.338 E0.03035
G1 X94.272 Y140.666 E0.03036
G1 X93.342 Y140.936 E0.03035
G1 X92.397 Y141.147 E0.03035
G1 X91.441 Y141.299 E0.03035
G1 X90.477 Y141.390 E0.03035
G1 X89.516 Y141.420 E0.03015
G1 X77.503 Y141.420 E0.37666
M73 Q0 S424
M73 P0 R423
G1 X76.542 Y141.390 E0.03015
G1 X75.578 Y141.299 E0.03035
G1 X74.622 Y141.147 E0.03035
G1 X73.677 Y140.936 E0.03035
G1 X72.748 Y140.666 E0.03035
G1 X71.837 Y140.338 E0.03036
G1 X70.948 Y139.953 E0.03035
G1 X70.086 Y139.514 E0.03035
G1 X69.253 Y139.021 E0.03035
G1 X68.452 Y138.477 E0.03035
G1 X67.687 Y137.884 E0.03036
G1 X66.961 Y137.243 E0.03035
G1 X66.276 Y136.559 E0.03035
G1 X65.636 Y135.833 E0.03035
G1 X65.043 Y135.068 E0.03036
G1 X64.499 Y134.267 E0.03035
G1 X64.006 Y133.434 E0.03035
G1 X63.566 Y132.571 E0.03035
G1 X63.182 Y131.683 E0.03035
G1 X62.854 Y130.772 E0.03036
G1 X62.584 Y129.842 E0.03036
G1 X62.373 Y128.898 E0.03035
G1 X62.221 Y127.941 E0.03035
G1 X62.130 Y126.978 E0.03035
G1 X62.100 Y126.016 E0.03015
G1 X62.100 Y84.003 E1.31728
G1 X62.130 Y83.042 E0.03015
G1 X62.221 Y82.079 E0.03035
G1 X62.373 Y81.122 E0.03035
G1 X62.584 Y80.178 E0.03035
G1 X62.854 Y79.248 E0.03036
G1 X63.182 Y78.337 E0.03036
G1 X63.566 Y77.449 E0.03035
G1 X64.006 Y76.586 E0.03035
G1 X64.499 Y75.753 E0.03035
G1 X65.043 Y74.952 E0.03035
G1 X65.636 Y74.187 E0.03036
G1 X66.276 Y73.461 E0.03035
G1 X66.773 Y72.965 E0.02201
G1 X66.720 Y72.534 F10800.000
G1 E-0.80000 F2100.00000
G1 X66.773 Y52.297 F10800.000
G1 E0.80000 F1500.00000
G1 F1074.044
G1 X111.997 Y52.297 E1.41799
G1 X112.533 Y52.314 E0.01679
G1 X113.166 Y52.370 E0.01993
G1 X113.736 Y52.461 E0.01810
G1 X114.301 Y52.587 E0.01815
G1 X114.857 Y52.748 E0.01815
G1 X115.401 Y52.944 E0.01814
G1 X115.932 Y53.174 E0.01815
G1 X116.448 Y53.437 E0.01815
G1 X116.946 Y53.732 E0.01815
G1 X117.425 Y54.057 E0.01814
G1 X117.882 Y54.412 E0.01815
G1 X118.316 Y54.794 E0.01815
G1 X118.725 Y55.203 E0.01814
G1 X119.108 Y55.638 E0.01815
G1 X119.463 Y56.095 E0.01815
G1 X119.788 Y56.574 E0.01814
G1 X120.083 Y57.072 E0.01815
G1 X120.346 Y57.587 E0.01815
G1 X120.575 Y58.119 E0.01815
G1 X120.771 Y58.663 E0.01814
G1 X120.933 Y59.219 E0.01815
G1 X121.059 Y59.784 E0.01815
G1 X121.150 Y60.355 E0.01815
G1 X121.204 Y60.932 E0.01815
G1 X121.223 Y61.522 E0.01853
G1 X121.223 Y148.498 E2.72705
G1 X121.204 Y149.088 E0.01853
G1 X121.150 Y149.665 E0.01815
G1 X121.059 Y150.236 E0.01815
G1 X120.933 Y150.801 E0.01815
G1 X120.771 Y151.357 E0.01815
G1 X120.575 Y151.901 E0.01814
G1 X120.346 Y152.432 E0.01815
G1 X120.083 Y152.948 E0.01815
G1 X119.788 Y153.446 E0.01815
G1 X119.463 Y153.925 E0.01814
G1 X119.108 Y154.382 E0.01815
G1 X118.725 Y154.816 E0.01815
G1 X118.316 Y155.226 E0.01814
G1 X117.882 Y155.608 E0.01815
G1 X117.425 Y155.963 E0.01815
G1 X116.946 Y156.288 E0.01814
G1 X116.448 Y156.583 E0.01815
G1 X115.932 Y156.846 E0.01815
G1 X115.401 Y157.076 E0.01815
G1 X114.857 Y157.272 E0.01814
G1 X114.301 Y157.433 E0.01815
G1 X113.736 Y157.559 E0.01815
G1 X113.164 Y157.650 E0.01815
G1 X112.588 Y157.704 E0.01815
G1 X111.997 Y157.723 E0.01853
G1 X55.022 Y157.723 E1.78642
G1 X54.431 Y157.704 E0.01853
G1 X53.855 Y157.650 E0.01815
G1 X53.284 Y157.559 E0.01815
G1 X52.719 Y157.433 E0.01815
G1 X52.163 Y157.272 E0.01815
G1 X51.618 Y157.076 E0.01814
G1 X51.087 Y156.846 E0.01815
G1 X50.572 Y156.583 E0.01815
G1 X50.073 Y156.288 E0.01815
G1 X49.595 Y155.963 E0.01814
G1 X49.138 Y155.608 E0.01815
G1 X48.703 Y155.226 E0.01815
G1 X48.294 Y154.816 E0.01814
G1 X47.911 Y154.382 E0.01815
G1 X47.557 Y153.925 E0.01815
G1 X47.231 Y153.446 E0.01814
G1 X46.937 Y152.948 E0.01815
G1 X46.674 Y152.432 E0.01815
G1 X46.444 Y151.901 E0.01815
G1 X46.248 Y151.357 E0.01814
G1 X46.087 Y150.801 E0.01815
G1 X45.960 Y150.236 E0.01815
G1 X45.870 Y149.665 E0.01815
G1 X45.815 Y149.088 E0.01815
G1 X45.797 Y148.498 E0.01853
G1 X45.797 Y61.522 E2.72705
G1 X45.815 Y60.932 E0.01853
G1 X45.870 Y60.355 E0.01815
G1 X45.960 Y59.784 E0.01815
G1 X46.087 Y59.219 E0.01815
G1 X46.248 Y58.663 E0.01815
G1 X46.444 Y58.119 E0.01814
G1 X46.674 Y57.587 E0.01815
G1 X46.937 Y57.072 E0.01815
G1 X47.231 Y56.574 E0.01815
G1 X47.557 Y56.095 E0.01814
G1 X47.911 Y55.638 E0.01815
G1 X48.294 Y55.203 E0.01815
G1 X48.703 Y54.794 E0.01814
G1 X49.138 Y54.412 E0.01815
G1 X49.595 Y54.057 E0.01815
G1 X50.073 Y53.732 E0.01814
G1 X50.572 Y53.437 E0.01815
G1 X51.087 Y53.174 E0.01815
G1 X51.618 Y52.944 E0.01815
G1 X52.163 Y52.748 E0.01814
G1 X52.719 Y52.587 E0.01815
G1 X53.284 Y52.461 E0.01815
G1 X53.855 Y52.370 E0.01815
G1 X54.431 Y52.316 E0.01815
G1 X55.022 Y52.297 E0.01853
G1 X66.713 Y52.297 E0.36655
G1 X66.713 Y51.920 F10800.000
G1 F1074.044
G1 X112.003 Y51.920 E1.42006
G1 X112.555 Y51.937 E0.01732
G1 X113.212 Y51.996 E0.02068
G1 X113.807 Y52.090 E0.01887
G1 X114.395 Y52.221 E0.01889
G1 X114.973 Y52.389 E0.01889
G1 X115.540 Y52.594 E0.01889
G1 X116.093 Y52.833 E0.01889
G1 X116.630 Y53.106 E0.01889
G1 X117.148 Y53.413 E0.01889
G1 X117.647 Y53.752 E0.01889
G1 X118.123 Y54.121 E0.01889
G1 X118.574 Y54.519 E0.01889
G1 X119.000 Y54.945 E0.01889
G1 X119.399 Y55.397 E0.01889
G1 X119.768 Y55.873 E0.01889
G1 X120.107 Y56.371 E0.01889
G1 X120.413 Y56.890 E0.01889
G1 X120.687 Y57.427 E0.01889
G1 X120.926 Y57.980 E0.01889
G1 X121.130 Y58.546 E0.01889
G1 X121.298 Y59.125 E0.01889
G1 X121.430 Y59.713 E0.01889
G1 X121.524 Y60.308 E0.01889
G1 X121.581 Y60.908 E0.01889
G1 X121.600 Y61.516 E0.01909
G1 X121.600 Y148.504 E2.72742
G1 X121.581 Y149.112 E0.01909
G1 X121.524 Y149.712 E0.01889
G1 X121.430 Y150.307 E0.01889
G1 X121.298 Y150.895 E0.01889
G1 X121.130 Y151.473 E0.01889
G1 X120.926 Y152.040 E0.01889
G1 X120.687 Y152.593 E0.01889
G1 X120.413 Y153.130 E0.01889
G1 X120.107 Y153.648 E0.01889
G1 X119.768 Y154.147 E0.01889
G1 X119.399 Y154.623 E0.01889
G1 X119.000 Y155.075 E0.01889
G1 X118.574 Y155.501 E0.01889
G1 X118.123 Y155.899 E0.01889
G1 X117.647 Y156.268 E0.01889
G1 X117.148 Y156.607 E0.01889
G1 X116.630 Y156.914 E0.01889
G1 X116.093 Y157.187 E0.01889
G1 X115.540 Y157.426 E0.01889
G1 X114.973 Y157.630 E0.01889
G1 X114.395 Y157.798 E0.01889
G1 X113.807 Y157.930 E0.01889
G1 X113.212 Y158.024 E0.01889
G1 X112.612 Y158.081 E0.01889
G1 X112.003 Y158.100 E0.01909
G1 X55.016 Y158.100 E1.78679
G1 X54.408 Y158.081 E0.01909
G1 X53.808 Y158.024 E0.01889
G1 X53.213 Y157.930 E0.01889
G1 X52.625 Y157.798 E0.01889
G1 X52.046 Y157.630 E0.01889
G1 X51.480 Y157.426 E0.01889
G1 X50.927 Y157.187 E0.01889
G1 X50.390 Y156.914 E0.01889
G1 X49.871 Y156.607 E0.01889
G1 X49.373 Y156.268 E0.01889
G1 X48.897 Y155.899 E0.01889
G1 X48.445 Y155.501 E0.01889
G1 X48.019 Y155.075 E0.01889
G1 X47.621 Y154.623 E0.01889
G1 X47.251 Y154.147 E0.01889
G1 X46.913 Y153.648 E0.01889
G1 X46.606 Y153.130 E0.01889
G1 X46.333 Y152.593 E0.01889
G1 X46.093 Y152.040 E0.01889
G1 X45.889 Y151.473 E0.01889
G1 X45.721 Y150.895 E0.01889
G1 X45.590 Y150.307 E0.01889
G1 X45.496 Y149.712 E0.01889
G1 X45.439 Y149.112 E0.01889
G1 X45.420 Y148.504 E0.01909
G1 X45.420 Y61.516 E2.72742
G1 X45.439 Y60.908 E0.01909
G1 X45.496 Y60.308 E0.01889
G1 X45.590 Y59.713 E0.01889
G1 X45.721 Y59.125 E0.01889
G1 X45.889 Y58.546 E0.01889
G1 X46.093 Y57.980 E0.01889
G1 X46.333 Y57.427 E0.01889
G1 X46.606 Y56.890 E0.01889
G1 X46.913 Y56.371 E0.01889
G1 X47.251 Y55.873 E0.01889
G1 X47.621 Y55.397 E0.01889
G1 X48.019 Y54.945 E0.01889
G1 X48.445 Y54.519 E0.01889
G1 X48.897 Y54.121 E0.01889
G1 X49.373 Y53.752 E0.01889
G1 X49.871 Y53.413 E0.01889
G1 X50.390 Y53.106 E0.01889
G1 X50.927 Y52.833 E0.01889
G1 X51.480 Y52.594 E0.01889
G1 X52.046 Y52.389 E0.01889
G1 X52.625 Y52.221 E0.01889
G1 X53.213 Y52.090 E0.01889
G1 X53.808 Y51.996 E0.01889
G1 X54.408 Y51.939 E0.01889
G1 X55.016 Y51.920 E0.01909
G1 X66.653 Y51.920 E0.36485
G1 X66.913 Y52.266 F10800.000
G1 E-0.80000 F2100.00000
G1 X80.295 Y52.410 F10800.000
G1 E0.80000 F1500.00000
G1 F1072.796
G1 X98.761 Y70.877 E0.81979
G1 X98.121 Y70.441 E0.02432
G1 X97.317 Y69.966 E0.02932
G1 X79.931 Y52.580 E0.77182
G1 X79.397 Y52.580 E0.01676
G1 X96.236 Y69.419 E0.74752
G1 X95.309 Y69.026 E0.03158
G1 X78.863 Y52.580 E0.73011
G1 X78.329 Y52.580 E0.01676
G1 X94.475 Y68.726 E0.71677
G1 X93.723 Y68.507 E0.02459
G1 X77.795 Y52.580 E0.70707
G1 X77.261 Y52.580 E0.01676
